lib/preview/nrk-logo-preview-nrk-2-with-bg.svg

<svg width="57" height="24" viewBox="0 0 57 24" fill="none" xmlns="http://www.w3.org/2000/svg">
<rect width="57" height="24" fill="#78003D"/>
<path d="M6.00425 18V6.00112H9.94144V18H6.00425ZM15.2981 7.91081L17.5623 18H13.2534L10.5497 6.00112H12.9664C13.5206 5.99393 14.0583 6.18928 14.4788 6.55042C14.8999 6.89641 15.1892 7.37673 15.2981 7.91081ZM18.1538 18V6.00112H22.091V18H18.1538ZM25.0647 10.5641C24.6405 10.5683 24.223 10.4573 23.8568 10.243C23.4955 10.0342 23.1953 9.73399 22.9865 9.37263C22.772 9.00636 22.661 8.58879 22.6652 8.16435C22.6604 7.74249 22.7715 7.32741 22.9865 6.96446C23.1976 6.60702 23.4974 6.31012 23.8568 6.10255C24.2231 5.88853 24.6405 5.77755 25.0647 5.78141C25.4865 5.77687 25.9014 5.88796 26.2645 6.10255C26.6203 6.31194 26.9169 6.60859 27.1263 6.96446C27.3411 7.32751 27.4522 7.74252 27.4476 8.16435C27.4515 8.58876 27.3405 9.00626 27.1263 9.37263C26.9191 9.73241 26.6222 10.0323 26.2645 10.243C25.9013 10.458 25.4861 10.5691 25.0642 10.5641H25.0647ZM28.0559 18V6.00112H31.9934V18H28.0559ZM36.978 12.5583C36.9891 12.5699 37.0735 12.7079 37.2314 12.9723C37.3893 13.2367 37.5949 13.5747 37.8482 13.9863C38.1017 14.3977 38.3691 14.8343 38.6506 15.296C38.932 15.7578 39.1969 16.1944 39.4451 16.6058C39.6923 17.0172 39.974 17.482 40.29 18H35.9641C35.6935 17.5606 35.4484 17.1635 35.2287 16.8086C35.0091 16.4537 34.7755 16.0706 34.5281 15.6594C34.2801 15.2485 34.0348 14.8486 33.7925 14.4595C33.5501 14.0704 33.3418 13.7296 33.1675 13.4371C32.9925 13.1443 32.8713 12.9472 32.8039 12.8456C32.6368 12.5935 32.5379 12.3023 32.5169 12.0006C32.5337 11.711 32.6269 11.431 32.787 11.1891C32.8546 11.0765 32.9785 10.8765 33.1588 10.5892C33.339 10.3019 33.5503 9.96108 33.7925 9.56675C34.0347 9.17242 34.2799 8.76963 34.5281 8.35841C34.7763 7.94718 35.0098 7.56127 35.2287 7.20074C35.4488 6.84058 35.6939 6.44062 35.9641 6.00085H40.29L36.9439 11.4595C36.8403 11.6216 36.782 11.8084 36.7749 12.0006C36.786 12.2024 36.8565 12.3963 36.9774 12.5583H36.978Z" fill="white"/>
<path d="M46.2627 16.5542C46.5302 16.3247 46.8053 16.0862 47.0959 15.8277C47.5014 15.4672 47.9097 15.0758 48.3209 14.6534C48.732 14.231 49.1234 13.7917 49.4952 13.3355C49.8562 12.8941 50.1864 12.4283 50.4836 11.9416C50.761 11.4892 50.9876 11.0076 51.1594 10.5055C51.319 10.0434 51.4018 9.55822 51.4044 9.06933C51.4125 8.61276 51.3202 8.15998 51.134 7.743C50.9499 7.34918 50.6784 7.0025 50.3402 6.72925C49.9532 6.42271 49.5076 6.19847 49.0308 6.07031C48.4447 5.91011 47.8389 5.83332 47.2314 5.84221C46.8377 5.84117 46.4448 5.87509 46.0571 5.94359C45.6883 6.00878 45.3262 6.10775 44.9755 6.23926C44.6412 6.36455 44.3166 6.51421 44.0043 6.68701L44.2237 8.15694C44.4913 7.97757 44.7775 7.82747 45.0772 7.70921C45.4027 7.57855 45.7391 7.47678 46.0825 7.40508C46.4324 7.33176 46.7891 7.29495 47.1466 7.29525C47.5213 7.28763 47.8948 7.33895 48.2536 7.44733C48.5392 7.53476 48.8018 7.68484 49.0221 7.88662C49.2206 8.07172 49.3738 8.30009 49.4698 8.554C49.5682 8.82173 49.6169 9.10513 49.6137 9.39034C49.6079 9.86906 49.5104 10.3422 49.3265 10.7843C49.1127 11.3034 48.8406 11.7965 48.5155 12.2542C48.1368 12.7919 47.7249 13.3054 47.2821 13.7917C46.809 14.3155 46.2937 14.8393 45.7361 15.363C45.1785 15.8868 44.6013 16.419 44.0043 16.9597L44.2237 18.0072H51.5398L51.7426 16.5542H46.2627Z" fill="#FDAFD7"/>
</svg>

<svg xmlns="http://www.w3.org/2000/svg" viewBox="0 0 57 24"><path fill="#78003D" d="M0 0h57v24H0z"/><path fill="#fff" d="M6.004 18V6.001h3.937V18H6.004Zm9.294-10.09L17.562 18h-4.309L10.55 6.001h2.416a2.276 2.276 0 0 1 1.513.55c.42.345.71.826.82 1.36ZM18.154 18V6.001h3.937V18h-3.937Zm6.91-7.436a2.381 2.381 0 0 1-2.4-2.4 2.303 2.303 0 0 1 .323-1.2 2.411 2.411 0 0 1 3.278-.861c.355.209.652.506.861.861.215.364.326.779.322 1.2a2.4 2.4 0 0 1-1.183 2.079 2.303 2.303 0 0 1-1.2.321ZM28.057 18V6.001h3.937V18h-3.937Zm8.922-5.442c.011.012.096.15.253.414.158.265.364.603.617 1.014a327.152 327.152 0 0 1 1.597 2.62c.247.411.529.876.845 1.394h-4.326c-.27-.44-.516-.837-.735-1.191-.22-.355-.453-.738-.7-1.15-.249-.41-.494-.81-.737-1.2-.242-.389-.45-.73-.625-1.022-.175-.293-.296-.49-.363-.591a1.75 1.75 0 0 1-.287-.845c.017-.29.11-.57.27-.812.068-.113.191-.313.372-.6a182.36 182.36 0 0 0 1.37-2.23c.247-.412.48-.798.7-1.158l.735-1.2h4.326l-3.346 5.458a1.079 1.079 0 0 0-.17.542c.012.201.082.395.203.557h.001Z"/><path fill="#FDAFD7" d="M46.263 16.554c.267-.23.542-.468.833-.726.405-.36.814-.752 1.225-1.175a20.05 20.05 0 0 0 1.174-1.318c.361-.44.691-.907.989-1.393.277-.453.504-.934.675-1.437.16-.462.243-.947.245-1.436a3.117 3.117 0 0 0-.27-1.326 2.86 2.86 0 0 0-.794-1.014 3.624 3.624 0 0 0-1.31-.659 6.466 6.466 0 0 0-1.799-.228 6.648 6.648 0 0 0-1.174.102 6.11 6.11 0 0 0-1.082.295 7.291 7.291 0 0 0-.97.448l.219 1.47c.267-.18.554-.33.853-.448a5.98 5.98 0 0 1 1.006-.304c.35-.073.706-.11 1.064-.11.374-.007.748.044 1.107.152.285.088.548.238.768.44.199.185.352.413.448.667.098.268.147.551.144.836a3.748 3.748 0 0 1-.287 1.394 7.414 7.414 0 0 1-.811 1.47c-.38.538-.791 1.051-1.234 1.538a26.86 26.86 0 0 1-1.546 1.571 129.48 129.48 0 0 1-1.732 1.597l.22 1.047h7.316l.203-1.453h-5.48Z"/></svg>
